X:1
T:Title
%%score { ( 1 4 ) | ( 2 3 ) }
L:1/8
M:4/4
K:F
V:1 treble nm="Grand Piano"
V:4 treble 
V:2 bass 
V:3 bass 
V:1
 z4 z2[Q:1/4=100] A2 | c2 AG F2 c2 | d2 cA [CAc]2 F-[FG] | F2 F2 E2 F2 |[M:3/4] [EG]6 | %5
[M:1/4] [FA]2 |[M:4/4] z4 z2[K:bass] .F2 | D2 F2 C2 [DB]2 | A2 G2 F2 E2 |[M:3/4] F6 |] %10
V:2
 z4 z2 [F,CF]2 | z2 .C2 z4 | [F,B,F]2 [F,F]-[F,CF] F,2 z B, | [F,A,C]2 [F,A,C]2 [G,B,C]2 [F,A,C]2 | %4
[M:3/4] [C,C]6 |[M:1/4] [F,C]2 |[M:4/4] z2 .C2 z4 | [B,,F,B,]2 [D,F,B,]2 [F,A,]2 [B,,F,]2 | %8
 [C,F,C]2 [C,B,C]2 [C,A,C]2 [C,B,C]2 |[M:3/4] [F,A,C]6 |] %10
V:3
 x8 | [F,A,F]2 [F,F]-[F,B,F] [F,A,]2 [F,A,F]2 | z2 .A,2 z2 F,2 | x8 |[M:3/4] x6 |[M:1/4] x2 | %6
[M:4/4] [F,C]2 [F,F]-[F,B,F] F,2 A,,2 | x8 | x8 |[M:3/4] x6 |] %10
V:4
 x8 | x8 | z4 z2 .[CA]2 | x8 |[M:3/4] x6 |[M:1/4] x2 | %6
[M:4/4] [Ac]2 AG [A,F]2[K:bass] [F,C]-[F,CE] | x8 | x8 |[M:3/4] x6 |] %10

